X: 1792
T: Pearly Watling's Mazurka
B: australian traditional tunes wiki
M:3/4
L:1/8
R: Mazurka
Q: 1/4=100
K:D
V:1 
de|"D"(3fef A3d|"G"ceB3d|"Em"ceB3d|"A7"B2A3e|
"D"(3fef A3d|"G"ceB3d|"A"ceB2 (3cBc|"D"d4:|
|:(3ABc|"D"dAF3A|"Em"EGB4|"A7"cBG2 (3EGE|"D"DFA2 (3ABc|
"D"dAF3F|"Em"EGB4|"A7"cBG2 (3EGE|"D"D2-D2:|
% abcbook-tune_id 6342d53ac84865f0904d923a


% abcbook-boost 0
% abcbook-tablature 
% abcbook-transpose 
% abcbook-lastupdated 1665324384114
% abcbook-soundfonts 
% abcbook-repeats 1
% NFF Book 2009

